svgs/light/user-vneck-hair-long.svg

<svg xmlns="http://www.w3.org/2000/svg" viewBox="0 0 448 512"><!--! Font Awesome Pro 6.1.1 by @fontawesome - https://fontawesome.com License - https://fontawesome.com/license (Commercial License) Copyright 2022 Fonticons, Inc. --><path d="M224 0C294.7 0 352 57.31 352 128C352 163.3 368.6 196.4 396.8 217.6L401.1 220.8C410.5 227.9 416 238.9 416 250.7C416 271.3 399.3 288 378.7 288H320C311.2 288 304 280.8 304 272C304 263.2 311.2 256 320 256H378.7C381.6 256 384 253.6 384 250.7C384 248.1 383.2 247.4 381.9 246.4L377.6 243.2C361.8 231.3 348.8 216.5 339.2 199.8C318.5 242.6 274.7 272 224 272C173.3 272 129.5 242.6 108.8 199.8C99.19 216.5 86.21 231.3 70.4 243.2L66.13 246.4C64.79 247.4 64 248.1 64 250.7C64 253.6 66.39 256 69.33 256H128C136.8 256 144 263.2 144 272C144 280.8 136.8 288 128 288H69.33C48.71 288 32 271.3 32 250.7C32 238.9 37.53 227.9 46.93 220.8L51.2 217.6C79.4 196.4 96 163.3 96 128C96 57.31 153.3 0 224 0V0zM318.7 112H288.6C273.7 112 259.5 106.1 248.1 95.6L242.7 89.33C223.4 113.5 193.1 128 162.3 128H128V144C128 197 170.1 240 224 240C277 240 320 197 320 144V128C320 122.5 319.5 117.2 318.7 112V112zM251.3 52.69L271.6 72.97C276.1 77.47 282.2 80 288.6 80H307.2C290.6 51.31 259.5 32 224 32C182.2 32 146.6 58.71 133.5 96H162.3C189.1 96 213.5 80.97 225.5 57.15C226.3 55.53 227.4 54.02 228.7 52.69C234.9 46.44 245.1 46.44 251.3 52.69H251.3zM417.3 512H30.72C13.75 512 0 498.2 0 481.3C0 395.3 67.34 324.1 152.2 320.3L224 416L295.8 320.3C380.7 324.1 448 395.3 448 481.3C448 498.2 434.2 512 417.3 512zM137.6 354.2C77.93 365.2 32.62 417.3 32.01 480H415.1C415.4 417.3 370.1 365.2 310.4 354.2L249.6 435.2C243.6 443.3 234.1 448 223.1 448C213.9 448 204.4 443.3 198.4 435.2L137.6 354.2z"/></svg>

<svg xmlns="http://www.w3.org/2000/svg" viewBox="0 0 448 512"><!--! Font Awesome Pro 6.4.2 by @fontawesome - https://fontawesome.com License - https://fontawesome.com/license (Commercial License) Copyright 2023 Fonticons, Inc. --><path d="M320 128c0-5.5-.5-10.8-1.3-16H288.6c-14.9 0-29.1-5.9-39.6-16.4l-6.3-6.3C223.4 113.5 194 128 162.3 128L128 128v16c0 53 43 96 96 96s96-43 96-96V128zM224 0c70.7 0 128 57.3 128 128c0 35.3 16.6 68.4 44.8 89.6l4.3 3.2c9.4 7.1 14.9 18.1 14.9 29.9c0 20.6-16.7 37.3-37.3 37.3H320c-8.8 0-16-7.2-16-16s7.2-16 16-16h58.7c2.9 0 5.3-2.4 5.3-5.3c0-1.7-.8-3.3-2.1-4.3l-4.3-3.2c-15.8-11.9-28.8-26.7-38.4-43.4C318.5 242.6 274.7 272 224 272s-94.5-29.4-115.2-72.2c-9.6 16.7-22.6 31.5-38.4 43.4l-4.3 3.2c-1.3 1-2.1 2.6-2.1 4.3c0 2.9 2.4 5.3 5.3 5.3H128c8.8 0 16 7.2 16 16s-7.2 16-16 16H69.3C48.7 288 32 271.3 32 250.7c0-11.8 5.5-22.8 14.9-29.9l4.3-3.2C79.4 196.4 96 163.3 96 128C96 57.3 153.3 0 224 0zm4.7 52.7c6.2-6.2 16.4-6.2 22.6 0L271.6 73c4.5 4.5 10.6 7 17 7h18.6C290.6 51.3 259.5 32 224 32c-41.8 0-77.4 26.7-90.5 64h28.9c26.7 0 51.2-15 63.2-38.9c.8-1.6 1.8-3.1 3.1-4.5zM185.6 418.1l-48-64C77.9 365.2 32.6 417.3 32 480H416c-.6-62.7-45.9-114.8-105.6-125.8l-48 64c-19.2 25.6-57.6 25.6-76.8 0zM143.7 321c5.3-.6 10.5 1.9 13.7 6.2l53.9 71.8c6.4 8.5 19.2 8.5 25.6 0l53.9-71.8c3.2-4.3 8.4-6.7 13.7-6.2C385.1 329.7 448 398.2 448 481.3c0 17-13.8 30.7-30.7 30.7H30.7C13.8 512 0 498.2 0 481.3C0 398.2 62.9 329.7 143.7 321z"/></svg>
